X:846
T:Ale Is Dear, The
S:West Edinburgh Folk Group
Z:Nigel Gatherer
M:4/4
L:1/8
K:Bm
f2 ef B2 fe | faef cAec | f2 ef B2 fe | faec B2-B2 :|
B2 Bc d2 cB | A2 AB ABcA | B2 Bc d2 cB | faec B2-B2 |
B2 Bc d2 cB | A2 AB ABcA | d2 fd c2 ec | faec B1-B2 |]
